src/assets/mh-icons/Gunlance_Rank_01.svg

<?xml version="1.0" encoding="UTF-8" standalone="no"?>
<svg
   width="100%"
   height="100%"
   viewBox="0 0 64 64"
   version="1.1"
   xml:space="preserve"
   style="fill-rule:evenodd;clip-rule:evenodd;stroke-linejoin:round;stroke-miterlimit:2;"
   id="svg8225"
   sodipodi:docname="Gunlance_Rank_01.svg"
   inkscape:version="1.2.2 (732a01da63, 2022-12-09)"
   xmlns:inkscape="http://www.inkscape.org/namespaces/inkscape"
   xmlns:sodipodi="http://sodipodi.sourceforge.net/DTD/sodipodi-0.dtd"
   xmlns="http://www.w3.org/2000/svg"
   xmlns:svg="http://www.w3.org/2000/svg"><defs
   id="defs8229">
        
    
            
        
                
                
                
            </defs><sodipodi:namedview
   id="namedview8227"
   pagecolor="#505050"
   bordercolor="#eeeeee"
   borderopacity="1"
   inkscape:showpageshadow="0"
   inkscape:pageopacity="0"
   inkscape:pagecheckerboard="0"
   inkscape:deskcolor="#505050"
   showgrid="false"
   inkscape:zoom="16.046875"
   inkscape:cx="32.062317"
   inkscape:cy="31.968841"
   inkscape:window-width="3440"
   inkscape:window-height="1377"
   inkscape:window-x="-8"
   inkscape:window-y="-8"
   inkscape:window-maximized="1"
   inkscape:current-layer="svg8225" />
    <path
   id="background"
   style="fill-opacity:0.76;fill:none;stroke:#000000;stroke-opacity:1;stroke-width:4;stroke-dasharray:none"
   d="M 12 6 L 6 9 L 6 23 L 13 23 L 15 23 L 15 29 L 15 31 L 9 31 L 8 31 C 7.4480006 31 7 31.448001 7 32 L 7 38 L 12 38 L 12 40 L 8 47 L 13 47 L 15 49 L 15 56 L 13 56 C 12.448001 56 12 56.450001 12 57 C 12 58.099999 12.896001 59 14 59 L 19 59 C 20.648998 59 21.99 57.66953 22 56.019531 L 22 49 L 24 47 L 29 47 L 25 40 L 25 38 L 27 38 L 27 32 C 27 31.448001 26.551999 31 26 31 L 25 31 L 22 31 L 22 29 L 22 17 L 22.75 14 L 23 14 C 23.551999 14 24 13.551999 24 13 C 24 12.448001 23.551999 12 23 12 L 15 12 L 13 10 L 13 6 L 12 6 z M 39 15 C 39 15 38.594997 16.334002 36 18 C 33.405003 19.665998 30 20 30 20 L 30 24 L 35 30 L 35 32 L 35 42 L 35 47 L 40 52 L 42 52 L 43 52 L 45 52 L 46 52 L 48 52 L 53 47 L 53 42 L 53 32 L 53 30 L 58 24 L 58 20 C 58 20 54.594997 19.665998 52 18 C 49.405003 16.334002 49 15 49 15 L 46 15 L 45 15 L 43 15 L 42 15 L 39 15 z " />
<g
   transform="matrix(1,0,0,1,0,-320)"
   id="g8721">
        <g
   transform="matrix(1,0,0,1,-320,-640)"
   id="g8719">
            <g
   id="g8717">
                <path
   id="base"
   d="m 362,975 -7,6 v 21 l 7,10 h 4 l 7,-10 v -21 l -7,-6 z m -26,35 -4,-4 v -9 h -4 v -6 h 7 v -8 h -2 l -1,-1 v -13 l 4,4 h 7 l -1,4 v 14 h 4 v 6 h -1 v 9 l -4,4 z"
   style="display:inline;fill:#1f1f1f;fill-opacity:1"
   inkscape:label="base" />
                <path
   id="path8713"
   d="M363,992L355,992L355,1007L360,1012L363,1012L363,992ZM361,995C361,994.448 360.552,994 360,994L358,994C357.448,994 357,994.448 357,995L357,999C357,999.552 357.448,1000 358,1000L360,1000C360.552,1000 361,999.552 361,999L361,995ZM365,975L365,990L373,990L378,984L378,980C378,980 374.595,979.666 372,978C369.405,976.334 369,975 369,975L365,975ZM371,983C371,982.448 370.552,982 370,982L368,982C367.448,982 367,982.448 367,983L367,987C367,987.552 367.448,988 368,988L370,988C370.552,988 371,987.552 371,987L371,983Z"
   style="fill:rgb(135,135,135);" />
                <path
   id="path8715"
   d="M335,1016L335,1009L342,1009L342,1016.02C341.99,1017.67 340.649,1019 339,1019L334,1019C332.896,1019 332,1018.1 332,1017C332,1016.45 332.448,1016 333,1016L335,1016ZM365,992L373,992L373,1007L368,1012L365,1012L365,992ZM345,1000L349,1007L328,1007L332,1000L345,1000ZM371,995C371,994.448 370.552,994 370,994L368,994C367.448,994 367,994.448 367,995L367,999C367,999.552 367.448,1000 368,1000L370,1000C370.552,1000 371,999.552 371,999L371,995ZM347,998L327,998L327,992C327,991.448 327.448,991 328,991L329,991L329,996L334,996L334,992C334,991.448 334.448,991 335,991L339,991C339.552,991 340,991.448 340,992L340,996L345,996L345,991L346,991C346.552,991 347,991.448 347,992L347,998ZM363,975L363,990L355,990L350,984L350,980C350,980 353.405,979.666 356,978C358.595,976.334 359,975 359,975L363,975ZM342,977C342,976.448 341.552,976 341,976L336,976C335.448,976 335,976.448 335,977L335,989L342,989L342,977ZM361,983C361,982.448 360.552,982 360,982L358,982C357.448,982 357,982.448 357,983L357,987C357,987.552 357.448,988 358,988L360,988C360.552,988 361,987.552 361,987L361,983ZM333,983L333,966L332,966L326,969L326,983L333,983ZM344,973C344,972.448 343.552,972 343,972L335,972L335,974L343,974C343.552,974 344,973.552 344,973Z"
   style="fill:rgb(181,181,181);" />
            </g>
        </g>
    </g></svg>

<?xml version="1.0" encoding="UTF-8" standalone="no"?>
<svg
   width="100%"
   height="100%"
   viewBox="0 0 64 64"
   version="1.1"
   xml:space="preserve"
   style="fill-rule:evenodd;clip-rule:evenodd;stroke-linejoin:round;stroke-miterlimit:2;"
   id="svg8225"
   sodipodi:docname="Gunlance_Rank_01.svg"
   inkscape:version="1.2.2 (732a01da63, 2022-12-09)"
   xmlns:inkscape="http://www.inkscape.org/namespaces/inkscape"
   xmlns:sodipodi="http://sodipodi.sourceforge.net/DTD/sodipodi-0.dtd"
   xmlns="http://www.w3.org/2000/svg"
   xmlns:svg="http://www.w3.org/2000/svg"><defs
   id="defs8229">
        
    
            
        
                
                
                
            </defs><sodipodi:namedview
   id="namedview8227"
   pagecolor="#505050"
   bordercolor="#eeeeee"
   borderopacity="1"
   inkscape:showpageshadow="0"
   inkscape:pageopacity="0"
   inkscape:pagecheckerboard="0"
   inkscape:deskcolor="#505050"
   showgrid="false"
   inkscape:zoom="16.046875"
   inkscape:cx="32"
   inkscape:cy="31.968841"
   inkscape:window-width="3440"
   inkscape:window-height="1377"
   inkscape:window-x="-8"
   inkscape:window-y="-8"
   inkscape:window-maximized="1"
   inkscape:current-layer="svg8225" />
    <path
   id="background"
   style="fill-opacity:0.76;fill:none;stroke:#000000;stroke-opacity:1;stroke-width:4;stroke-dasharray:none"
   d="M 12 6 L 6 9 L 6 23 L 13 23 L 15 23 L 15 29 L 15 31 L 9 31 L 8 31 C 7.4480006 31 7 31.448001 7 32 L 7 38 L 12 38 L 12 40 L 8 47 L 13 47 L 15 49 L 15 56 L 13 56 C 12.448001 56 12 56.450001 12 57 C 12 58.099999 12.896001 59 14 59 L 19 59 C 20.648998 59 21.99 57.66953 22 56.019531 L 22 49 L 24 47 L 29 47 L 25 40 L 25 38 L 27 38 L 27 32 C 27 31.448001 26.551999 31 26 31 L 25 31 L 22 31 L 22 29 L 22 17 L 22.75 14 L 23 14 C 23.551999 14 24 13.551999 24 13 C 24 12.448001 23.551999 12 23 12 L 15 12 L 13 10 L 13 6 L 12 6 z M 39 15 C 39 15 38.594997 16.334002 36 18 C 33.405003 19.665998 30 20 30 20 L 30 24 L 35 30 L 35 32 L 35 42 L 35 47 L 40 52 L 42 52 L 43 52 L 45 52 L 46 52 L 48 52 L 53 47 L 53 42 L 53 32 L 53 30 L 58 24 L 58 20 C 58 20 54.594997 19.665998 52 18 C 49.405003 16.334002 49 15 49 15 L 46 15 L 45 15 L 43 15 L 42 15 L 39 15 z " />
<g
   transform="matrix(1,0,0,1,0,-320)"
   id="g8721">
        <g
   transform="matrix(1,0,0,1,-320,-640)"
   id="g8719">
            <g
   id="g8717">
                <path
   id="path8711"
   d="M362,975L355,981L355,1002L362,1012L366,1012L373,1002L373,981L366,975L362,975ZM336,1010L332,1006L332,997L328,997L328,991L335,991L335,983L333,983L332,982L332,969L336,973L343,973L342,977L342,991L346,991L346,997L345,997L345,1006L341,1010L336,1010Z"
   style="fill-opacity:1;fill:#1f1f1f" />
                <path
   id="path8713"
   d="M363,992L355,992L355,1007L360,1012L363,1012L363,992ZM361,995C361,994.448 360.552,994 360,994L358,994C357.448,994 357,994.448 357,995L357,999C357,999.552 357.448,1000 358,1000L360,1000C360.552,1000 361,999.552 361,999L361,995ZM365,975L365,990L373,990L378,984L378,980C378,980 374.595,979.666 372,978C369.405,976.334 369,975 369,975L365,975ZM371,983C371,982.448 370.552,982 370,982L368,982C367.448,982 367,982.448 367,983L367,987C367,987.552 367.448,988 368,988L370,988C370.552,988 371,987.552 371,987L371,983Z"
   style="fill:rgb(135,135,135);" />
                <path
   id="path8715"
   d="M335,1016L335,1009L342,1009L342,1016.02C341.99,1017.67 340.649,1019 339,1019L334,1019C332.896,1019 332,1018.1 332,1017C332,1016.45 332.448,1016 333,1016L335,1016ZM365,992L373,992L373,1007L368,1012L365,1012L365,992ZM345,1000L349,1007L328,1007L332,1000L345,1000ZM371,995C371,994.448 370.552,994 370,994L368,994C367.448,994 367,994.448 367,995L367,999C367,999.552 367.448,1000 368,1000L370,1000C370.552,1000 371,999.552 371,999L371,995ZM347,998L327,998L327,992C327,991.448 327.448,991 328,991L329,991L329,996L334,996L334,992C334,991.448 334.448,991 335,991L339,991C339.552,991 340,991.448 340,992L340,996L345,996L345,991L346,991C346.552,991 347,991.448 347,992L347,998ZM363,975L363,990L355,990L350,984L350,980C350,980 353.405,979.666 356,978C358.595,976.334 359,975 359,975L363,975ZM342,977C342,976.448 341.552,976 341,976L336,976C335.448,976 335,976.448 335,977L335,989L342,989L342,977ZM361,983C361,982.448 360.552,982 360,982L358,982C357.448,982 357,982.448 357,983L357,987C357,987.552 357.448,988 358,988L360,988C360.552,988 361,987.552 361,987L361,983ZM333,983L333,966L332,966L326,969L326,983L333,983ZM344,973C344,972.448 343.552,972 343,972L335,972L335,974L343,974C343.552,974 344,973.552 344,973Z"
   style="fill:rgb(181,181,181);" />
            </g>
        </g>
    </g></svg>
